svgs/thin/magnifying-glass-location.svg

<svg xmlns="http://www.w3.org/2000/svg" viewBox="0 0 512 512"><!-- Font Awesome Pro 6.0.0-alpha2 by @fontawesome - https://fontawesome.com License - https://fontawesome.com/license (Commercial License) --><path d="M509.656 498.344L360.465 349.152C394.828 312.053 416 262.557 416 208C416 93.125 322.875 0 208 0S0 93.125 0 208S93.125 416 208 416C262.555 416 312.055 394.828 349.152 360.465L498.344 509.656C499.906 511.219 501.938 512 504 512S508.094 511.219 509.656 509.656C512.781 506.531 512.781 501.469 509.656 498.344ZM208 400C102.133 400 16 313.869 16 208S102.133 16 208 16S400 102.131 400 208S313.867 400 208 400ZM207.928 96C160.385 96 121.885 134.5 121.885 182.188C121.885 220.541 178.178 290.688 199.76 316.209C201.803 318.541 204.719 320 207.928 320C211.135 320 214.197 318.541 216.24 316.209C237.822 290.688 294.115 220.541 294.115 182.188C294.115 134.5 255.615 96 207.928 96ZM208.004 301.143C164.635 249.074 137.885 203.785 137.885 182.188C137.885 143.486 169.307 112 207.928 112C246.629 112 278.115 143.486 278.115 182.188C278.115 203.812 251.301 249.188 208.004 301.143ZM208 160C199.166 160 192 167.166 192 176S199.166 192 208 192S224 184.834 224 176S216.834 160 208 160Z"/></svg>

<svg xmlns="http://www.w3.org/2000/svg" viewBox="0 0 512 512"><!--! Font Awesome Pro 6.3.0 by @fontawesome - https://fontawesome.com License - https://fontawesome.com/license (Commercial License) Copyright 2023 Fonticons, Inc. --><path d="M509.7 498.3l-149.2-149.2C394.8 312.1 416 262.6 416 208C416 93.13 322.9 0 208 0S0 93.13 0 208S93.13 416 208 416c54.55 0 104.1-21.17 141.2-55.54l149.2 149.2C499.9 511.2 501.9 512 504 512s4.094-.7813 5.656-2.344C512.8 506.5 512.8 501.5 509.7 498.3zM208 400c-105.9 0-192-86.13-192-192s86.13-192 192-192s192 86.13 192 192S313.9 400 208 400zM207.1 96C160.4 96 121.9 134.5 121.9 182.2c0 38.35 56.29 108.5 77.87 134C201.8 318.5 204.7 320 207.1 320c3.207 0 6.26-1.459 8.303-3.791c21.58-25.52 77.88-95.67 77.88-134C294.1 134.5 255.6 96 207.1 96zM208 301.1C164.6 249.1 137.9 203.8 137.9 182.2C137.9 143.5 169.3 112 207.9 112c38.7 0 70.19 31.49 70.19 70.19C278.1 203.8 251.3 249.2 208 301.1zM208 160C199.2 160 192 167.2 192 176S199.2 192 208 192S224 184.8 224 176S216.8 160 208 160z"/></svg>
